static/assets/element/ChevronRight.svg

<svg fill="none" height="85" viewBox="0 0 48 85" width="48" xmlns="http://www.w3.org/2000/svg"><path d="m47.7285 42.3608c0-1.223-.4457-2.3003-1.3888-3.2329l-38.6942-37.8225c-.8186-.870203-1.9064-1.3054-3.1495-1.3054-2.5379 0-4.496 1.8958-4.496 4.4443 0 1.1913.5386 2.3204 1.2948 3.1801l35.5353 34.7364-35.5353 34.7363c-.7562.8597-1.2948 1.937-1.2948 3.1801 0 2.5485 1.9581 4.4443 4.496 4.4443 1.2431 0 2.3309-.4352 3.1495-1.3054l38.6942-37.8225c.9431-.9326 1.3888-2.0099 1.3888-3.2328z" fill="#808080"/></svg>

<svg width="48" height="85" viewBox="0 0 48 85" fill="none" xmlns="http://www.w3.org/2000/svg">
<path d="M47.7285 42.3608C47.7285 41.1378 47.2828 40.0605 46.3397 39.1279L7.6455 1.3054C6.8269 0.435197 5.7391 0 4.496 0C1.9581 0 0 1.8958 0 4.4443C0 5.6356 0.5386 6.7647 1.2948 7.6244L36.8301 42.3608L1.2948 77.0971C0.5386 77.9568 0 79.0341 0 80.2772C0 82.8257 1.9581 84.7215 4.496 84.7215C5.7391 84.7215 6.8269 84.2863 7.6455 83.4161L46.3397 45.5936C47.2828 44.661 47.7285 43.5837 47.7285 42.3608Z" fill="gray"/>
</svg>
